svg/u1f1ff.svg

<svg viewBox="0 0 128 128" xmlns="http://www.w3.org/2000/svg">
  <path d="m108.91 99.71h-46.31l48.33-79.77c0.44-0.73 0.46-1.64 0.04-2.39-0.42-0.74-1.21-1.2-2.06-1.2h-27.85c-0.25 0-0.49 0.05-0.71 0.13h-61.26c-1.24 0-2.24 1-2.24 2.24v16.72c0 1.24 1.01 2.24 2.24 2.24h47.43l-49.44 79.75c-0.45 0.73-0.47 1.65-0.06 2.4 0.42 0.75 1.21 1.21 2.07 1.21h29.25c0.25 0 0.49-0.05 0.72-0.12h59.84c1.23 0 2.24-1 2.24-2.24v-16.72c0.01-1.25-1-2.25-2.23-2.25z" fill="#40C0E7"/>
</svg>

<svg viewBox="0 0 128 128" xmlns="http://www.w3.org/2000/svg">
  <defs/>
  <path d="M108.91,99.71 L62.6,99.71 L110.93,19.94 C111.37,19.21 111.39,18.3 110.97,17.55 C110.55,16.81 109.76,16.35 108.91,16.35 L81.06,16.35 C80.81,16.35 80.57,16.4 80.35,16.48 L19.09,16.48 C17.85,16.48 16.85,17.48 16.85,18.72 L16.85,35.44 C16.85,36.68 17.86,37.68 19.09,37.68 L66.52,37.68 L17.08,117.43 C16.63,118.16 16.61,119.08 17.02,119.83 C17.44,120.58 18.23,121.04 19.09,121.04 L48.34,121.04 C48.59,121.04 48.83,120.99 49.06,120.92 L108.9,120.92 C110.13,120.92 111.14,119.92 111.14,118.68 L111.14,101.96 C111.15,100.71 110.14,99.71 108.91,99.71 Z" fill="#40C0E7"/>
</svg>
